X:1
T:Wind Up Her Little Ball of Yarn
M:2/2
L:1/4
K:A
 E D| C A, C E| A2 A A| B A A/2 F3/2| A2 G F| E2 E2| A A A C| B,4|\
 z2 C2| A, A, C E| A2 z B| B A A F| A2 G F| E2 A3/2 C/2| E/2 E3/2 D B,|\
 A,4|
